X:154
T:Happy Pair, The
M:6/8
L:1/8
B:Thompson's Compleat Collection of 200 Favourite Country Dances, vol. 2 (London, 1765)
Z:Transcribed and edited by Flynn Titford-Mock, 2007
Z:abc's:AK/Fiddler's Companion
K:D
d2d d2a | afd ecA | B2B B2d | cec d3 | d2d d2a | afd ecA | Bcd ef^g | ab^g a3 :|
|: e2f ecd | e2f ecd | Adc Bcd | egf e3 | fdf edc | dcd AGF | GFG Egf | edc d3 :|

